packages/ui-icons/svg/Line/info-borderless.svg

<svg viewBox="0 0 1920 1920" version="1.1" xmlns="http://www.w3.org/2000/svg">
    <path d="M852.516773,606.040293 C722.803522,666.467157 612.481273,770.668743 502.075185,923.020417 C486.329486,944.745157 485.694238,957.946682 501.870228,969.621566 C513.241611,977.830644 519.849558,975.205114 536.412485,957.533847 C538.629333,955.153197 538.629333,955.153197 540.895656,952.694467 C555.214475,937.188539 566.747856,924.032184 591.386288,895.419511 C672.792897,800.881864 712.555491,761.969449 774.35381,726.381908 C827.831878,695.587067 874.830167,740.843988 865.881492,798.761502 C863.370146,815.019556 859.045111,827.019032 847.902681,852.784113 C843.470502,863.032775 841.600946,867.491114 839.522913,872.955196 C819.43807,925.754285 802.520913,969.800564 767.071535,1061.78876 L765.375712,1066.18926 C754.657729,1094.0015 754.657729,1094.0015 743.949175,1121.80967 C697.522872,1242.47014 669.351309,1316.46107 640.283739,1394.71013 L638.57944,1399.29673 C630.778952,1420.27209 627.104858,1430.16815 623.044831,1441.17842 C589.739113,1531.49921 570.691941,1590.18475 556.205026,1652.60455 C553.942513,1662.31783 553.942513,1662.31783 551.648767,1672.18907 C543.487061,1707.49859 539.118805,1730.25118 536.676993,1753.63735 C532.454694,1794.07593 535.849581,1827.18983 548.558053,1855.01914 C562.938882,1886.51231 593.835706,1909.04005 629.089533,1914.15706 C687.817384,1922.68211 744.483473,1922.0763 793.017129,1911.03352 C820.330531,1904.82449 847.354541,1896.69408 873.870245,1886.72796 C950.643207,1857.86226 1024.6048,1812.82307 1096.24146,1753.28559 C1158.92235,1701.0501 1218.22877,1637.41069 1280.4056,1558.32093 C1285.82653,1551.47244 1285.82653,1551.47244 1291.22913,1544.63479 C1310.00909,1520.68772 1319.21024,1505.13352 1322.64517,1488.7048 C1326.38082,1470.86877 1311.30311,1452.7926 1299.25094,1458.84066 C1293.29494,1461.82952 1287.0639,1468.01652 1277.57022,1479.99112 C1270.77988,1488.70507 1267.08817,1493.36169 1263.39337,1497.54637 C1248.64765,1514.24148 1233.07799,1531.32945 1216.20937,1549.3832 C1188.3971,1579.13507 1160.13837,1608.24779 1119.15359,1649.69102 C1098.28006,1670.79826 1072.02814,1689.2517 1043.803,1703.12596 C998.627382,1725.32338 957.874219,1697.3444 962.769258,1647.26896 C965.997681,1614.21084 974.007008,1580.03493 985.98063,1546.99379 C1012.1376,1474.77424 1033.52538,1416.39049 1080.84062,1287.72341 C1101.36108,1231.92086 1110.22039,1207.8133 1121.28749,1177.63839 C1154.09653,1088.21309 1180.28718,1016.22344 1205.20556,946.762798 C1235.98968,860.960459 1253.38103,797.000766 1261.43291,730.952525 C1267.51205,681.136425 1253.6525,633.492383 1222.04418,600.736575 C1186.99723,564.425212 1137.14794,547.698151 1075.06539,548.432136 C1006.37349,549.248617 926.244673,571.69337 852.516773,606.040293 Z M1322.70268,13.816363 C1199.25857,-34.2116816 1051.13333,48.2985863 1026.33046,178.984948 C1008.34569,273.705561 1043.7292,355.483464 1115.95212,389.736414 C1259.11728,457.63325 1430.93359,348.839192 1430.94085,190.267929 C1430.94812,102.056539 1393.2734,41.2768194 1322.70268,13.816363 Z" fill-rule="nonzero" stroke="none" stroke-width="1"/>
</svg>

<svg viewBox="0 0 1920 1920" xmlns="http://www.w3.org/2000/svg">
    <path d="M852.517 606.04C722.804 666.467 612.48 770.67 502.075 923.02c-15.746 21.725-16.38 34.927-.205 46.602 11.372 8.209 17.98 5.583 34.542-12.088 2.217-2.38 2.217-2.38 4.484-4.84 14.318-15.505 25.852-28.662 50.49-57.274 81.407-94.538 121.17-133.45 182.968-169.038 53.478-30.795 100.476 14.462 91.527 72.38-2.51 16.258-6.836 28.257-17.978 54.022-4.432 10.249-6.302 14.707-8.38 20.171-20.085 52.8-37.002 96.846-72.451 188.834l-1.696 4.4c-10.718 27.813-10.718 27.813-21.427 55.62-46.426 120.661-74.598 194.652-103.665 272.901l-1.705 4.587c-7.8 20.975-11.474 30.871-15.534 41.881-33.306 90.321-52.353 149.007-66.84 211.427-2.262 9.713-2.262 9.713-4.556 19.584-8.162 35.31-12.53 58.062-14.972 81.448-4.222 40.439-.827 73.553 11.881 101.382 14.38 31.493 45.278 54.021 80.532 59.138 58.727 8.525 115.393 7.92 163.927-3.123 27.314-6.21 54.338-14.34 80.853-24.306 76.773-28.866 150.735-73.905 222.371-133.442 62.681-52.236 121.988-115.875 184.165-194.965 5.42-6.849 5.42-6.849 10.823-13.686 18.78-23.947 27.981-39.501 31.416-55.93 3.736-17.836-11.342-35.912-23.394-29.864-5.956 2.989-12.187 9.176-21.68 21.15-6.791 8.714-10.483 13.37-14.178 17.555-14.745 16.695-30.315 33.783-47.184 51.837-27.812 29.752-56.07 58.865-97.055 100.308-20.874 21.107-47.126 39.56-75.351 53.435-45.176 22.197-85.929-5.782-81.034-55.857 3.229-33.058 11.238-67.234 23.212-100.275 26.157-72.22 47.544-130.604 94.86-259.27 20.52-55.803 29.38-79.91 40.446-110.086 32.81-89.425 59-161.415 83.919-230.875 30.784-85.803 48.175-149.762 56.227-215.81 6.08-49.817-7.78-97.46-39.389-130.216-35.047-36.312-84.896-53.039-146.979-52.305-68.692.817-148.82 23.261-222.548 57.608Zm470.186-592.224c-123.444-48.028-271.57 34.483-296.373 165.169-17.984 94.72 17.4 176.498 89.622 210.751 143.165 67.897 314.982-40.897 314.989-199.468.007-88.211-37.668-148.991-108.238-176.452Z"/>
</svg>
